icons/ffmpeg-dark.svg

<svg width="256" height="256" viewBox="0 0 256 256" fill="none" xmlns="http://www.w3.org/2000/svg">
<path d="M196 0H60C26.8629 0 0 26.8629 0 60V196C0 229.137 26.8629 256 60 256H196C229.137 256 256 229.137 256 196V60C256 26.8629 229.137 0 196 0Z" fill="#282828"/>
<path d="M29.6719 73.4354V49.6074L45.6673 55.118V77.2846L29.6719 73.4354Z" fill="#0B4819"/>
<path d="M42.5698 171.392V82.7939L57.8589 86.0284V168.37L42.5698 171.392Z" fill="#0B4819"/>
<path d="M117.35 49.5678L78.0563 94.6336V113.811L136.335 48.0994L228.641 40.9536L92.8646 182.476L110.94 183.428L209.558 82.5594V177.894L198.603 188.193L226.388 189.694V216.079L139.232 209.329L183.66 166.229V144.988L120.143 207.851L44.0869 201.971L166.082 70.7729L146.005 71.8587L57.8585 168.371V86.0293L66.2078 76.1723L45.6665 77.2843V55.1176L117.35 49.5678Z" fill="#105C80"/>
<path d="M42.5698 82.795L51.4129 72.1499L66.2081 76.1725L57.8589 86.0294L42.5698 82.795Z" fill="#0B4819"/>
<path d="M63.9868 91.9937L78.056 94.6329V113.81L63.9868 112.659V91.9937Z" fill="#084010"/>
<path d="M79.7368 186.726L92.8641 182.475L110.94 183.426L99.0124 187.838L79.7368 186.726Z" fill="#0C541E"/>
<path d="M105.861 43.1572L117.35 49.5672L78.056 94.633L63.9868 91.9938L105.861 43.1572Z" fill="#1A5C34"/>
<path d="M63.9868 112.66L126.183 41.438L136.334 48.0998L78.056 113.811L63.9868 112.66Z" fill="#0B4819"/>
<path d="M136.561 67.1162L146.005 71.8583L57.8589 168.37L42.5698 171.392L136.561 67.1162Z" fill="#1A5C34"/>
<path d="M28 207.455L158.155 65.8413L166.082 70.773L44.087 201.971L28 207.455Z" fill="#0B4819"/>
<path d="M177.119 146.406L183.659 144.987L120.142 207.85L108.846 214.299L177.119 146.406Z" fill="#1A5C34"/>
<path d="M177.117 169.495V146.406L183.657 144.987V166.228L177.117 169.495Z" fill="#0B4819"/>
<path d="M129.292 216.025L177.119 169.494L183.659 166.227L139.231 209.327L129.292 216.025Z" fill="#0B4819"/>
<path d="M205.147 182.284L193.275 193.439L198.6 188.191L209.555 177.892L205.147 182.284Z" fill="#13802D"/>
<path d="M99.0122 187.839L205.149 78.458L209.558 82.5591L110.939 183.427L99.0122 187.839Z" fill="#0B4819"/>
<path d="M205.148 78.458L209.557 82.5591V177.894L205.148 182.286V78.458Z" fill="#084010"/>
<path d="M223.432 195.222L226.385 189.691V216.077L223.432 223.998V195.222Z" fill="#084010"/>
<path d="M225.88 33L228.64 40.9536L92.8641 182.476L79.7368 186.727L225.88 33Z" fill="#1A5C34"/>
<path d="M105.861 43.1578L63.9873 91.9944V112.66L126.183 41.4376L225.881 33L79.7374 186.727L99.013 187.839L205.15 78.4583V182.286L193.278 193.442L223.435 195.224V224L129.293 216.027L177.12 169.496V146.407L108.847 214.3L28 207.455L158.155 65.8412L136.56 67.1166L42.5695 171.393V82.7948L51.4127 72.1497L29.6712 73.435V49.607L105.861 43.1578Z" fill="url(#paint0_radial_669_29)"/>
<defs>
<radialGradient id="paint0_radial_669_29" cx="0" cy="0" r="1" gradientUnits="userSpaceOnUse" gradientTransform="translate(67.4408 69.0069) scale(96.7378 96.7378)">
<stop stop-color="white"/>
<stop offset="1" stop-color="#007808"/>
</radialGradient>
</defs>
</svg>

<svg xmlns="http://www.w3.org/2000/svg" width="256" height="256" fill="none"><path fill="#282828" d="M196 0H60C26.863 0 0 26.863 0 60v136c0 33.137 26.863 60 60 60h136c33.137 0 60-26.863 60-60V60c0-33.137-26.863-60-60-60"/><path fill="#0B4819" d="M29.672 73.435V49.607l15.995 5.511v22.167zm12.898 97.957V82.794l15.289 3.234v82.342z"/><path fill="#105C80" d="M117.35 49.568 78.056 94.634v19.177l58.279-65.712 92.306-7.145L92.865 182.476l18.075.952 98.618-100.869v95.335l-10.955 10.299 27.785 1.501v26.385l-87.156-6.75 44.428-43.1v-21.241l-63.517 62.863-76.056-5.88L166.082 70.773l-20.077 1.086-88.146 96.512V86.029l8.349-9.857-20.541 1.112V55.118z"/><path fill="#0B4819" d="m42.57 82.795 8.843-10.645 14.795 4.022-8.35 9.857z"/><path fill="#084010" d="m63.987 91.994 14.069 2.639v19.177l-14.07-1.151z"/><path fill="#0C541E" d="m79.737 186.726 13.127-4.251 18.076.951-11.928 4.412z"/><path fill="#1A5C34" d="m105.861 43.157 11.489 6.41-39.294 45.066-14.07-2.64z"/><path fill="#0B4819" d="m63.987 112.66 62.196-71.222 10.151 6.662-58.278 65.711z"/><path fill="#1A5C34" d="m136.561 67.116 9.444 4.742-88.146 96.512-15.29 3.022z"/><path fill="#0B4819" d="M28 207.455 158.155 65.841l7.927 4.932L44.087 201.971z"/><path fill="#1A5C34" d="m177.119 146.406 6.54-1.419-63.517 62.863-11.296 6.449z"/><path fill="#0B4819" d="M177.117 169.495v-23.089l6.54-1.419v21.241z"/><path fill="#0B4819" d="m129.292 216.025 47.827-46.531 6.54-3.267-44.428 43.1z"/><path fill="#13802D" d="m205.147 182.284-11.872 11.155 5.325-5.248 10.955-10.299z"/><path fill="#0B4819" d="M99.012 187.839 205.15 78.458l4.409 4.101-98.619 100.868z"/><path fill="#084010" d="m205.148 78.458 4.409 4.101v95.335l-4.409 4.392zm18.284 116.764 2.953-5.531v26.386l-2.953 7.921z"/><path fill="#1A5C34" d="m225.88 33 2.76 7.954L92.864 182.476l-13.127 4.251z"/><path fill="url(#paint0_radial_669_29)" d="M105.861 43.158 63.987 91.994v20.666l62.196-71.222L225.881 33 79.737 186.727l19.276 1.112L205.15 78.459v103.827l-11.872 11.156 30.157 1.782V224l-94.142-7.973 47.827-46.531v-23.089L108.847 214.3 28 207.455 158.155 65.841l-21.595 1.276-93.99 104.276V82.795l8.843-10.645-21.742 1.285V49.607z"/><defs><radialGradient id="paint0_radial_669_29" cx="0" cy="0" r="1" gradientTransform="translate(67.44 69.007)scale(96.7378)" gradientUnits="userSpaceOnUse"><stop stop-color="#fff"/><stop offset="1" stop-color="#007808"/></radialGradient></defs></svg>
